icons/svg/seamark/anchorage.svg

<?xml version="1.0" encoding="UTF-8" standalone="no"?>
<svg
   xmlns:dc="http://purl.org/dc/elements/1.1/"
   xmlns:cc="http://creativecommons.org/ns#"
   xmlns:rdf="http://www.w3.org/1999/02/22-rdf-syntax-ns#"
   xmlns:svg="http://www.w3.org/2000/svg"
   xmlns="http://www.w3.org/2000/svg"
   xmlns:sodipodi="http://sodipodi.sourceforge.net/DTD/sodipodi-0.dtd"
   xmlns:inkscape="http://www.inkscape.org/namespaces/inkscape"
   width="580"
   height="580"
   id="svg2"
   version="1.1"
   inkscape:version="0.48.4 r9939"
   sodipodi:docname="anchorage.svg">
  <defs
     id="defs13">
    <inkscape:path-effect
       effect="gears"
       id="path-effect3774"
       is_visible="true"
       teeth="6"
       phi="-1.2" />
    <inkscape:path-effect
       effect="bend_path"
       id="path-effect3772"
       is_visible="false"
       bendpath="m 95.790098,316.51174 c 144.429032,-206.42506 223.313032,-11.7428 339.548092,0"
       prop_scale="1.19"
       scale_y_rel="false"
       vertical="false"
       bendpath-nodetypes="cc" />
  </defs>
  <sodipodi:namedview
     pagecolor="#ffffff"
     bordercolor="#666666"
     borderopacity="1"
     objecttolerance="10"
     gridtolerance="10"
     guidetolerance="10"
     inkscape:pageopacity="0"
     inkscape:pageshadow="2"
     inkscape:window-width="1920"
     inkscape:window-height="1004"
     id="namedview11"
     showgrid="false"
     inkscape:zoom="0.5754386"
     inkscape:cx="372.35128"
     inkscape:cy="266.70316"
     inkscape:window-x="1680"
     inkscape:window-y="0"
     inkscape:window-maximized="1"
     inkscape:current-layer="svg2" />
  <metadata
     id="metadata2975">image/svg+xmlen<rdf:RDF>
  <cc:Work
     rdf:about="">
    <dc:format>image/svg+xml</dc:format>
    <dc:type
       rdf:resource="http://purl.org/dc/dcmitype/StillImage" />
    <dc:title />
  </cc:Work>
</rdf:RDF>
</metadata>
  <path
     style="font-size:medium;font-style:normal;font-variant:normal;font-weight:normal;font-stretch:normal;text-indent:0;text-align:start;text-decoration:none;line-height:normal;letter-spacing:normal;word-spacing:normal;text-transform:none;direction:ltr;block-progression:tb;writing-mode:lr-tb;text-anchor:start;baseline-shift:baseline;opacity:1;color:#000000;fill:#8d298d;fill-opacity:1;fill-rule:nonzero;stroke:none;stroke-width:1;marker:none;visibility:visible;display:inline;overflow:visible;enable-background:accumulate;font-family:Sans;-inkscape-font-specification:Sans"
     d="m 290.07765,128.16104 c -27.35985,0 -49.80054,22.44067 -49.80054,49.80057 0,18.31103 10.0586,34.40746 24.91095,43.06097 l 0,31.65056 -37.36643,0 0,24.91095 37.36643,0 0,112.16327 c -30.19224,-2.13304 -63.51299,-41.44794 -79.29702,-78.16664 12.51472,0.68093 24.80431,-0.27727 24.80431,-0.27727 0,0 -24.09182,-36.33669 -57.94782,-45.66297 -21.14287,18.26655 -24.52705,70.04073 -24.52705,70.04073 0,0 7.95939,-3.94045 17.59549,-11.28245 16.26871,46.57076 58.66202,86.91746 109.92384,98.17218 22.01449,4.83124 34.33784,29.32582 34.33784,29.32582 0,0 12.34477,-24.49458 34.35923,-29.32581 51.0033,-11.19795 93.21951,-51.19562 109.6679,-97.46836 9.86638,7.51872 17.85146,10.57863 17.85146,10.57863 0,-14.94197 -1.69169,-45.24903 -23.33275,-70.63791 -33.85589,9.32628 -59.16344,46.26015 -59.16344,46.26015 0,0 12.29372,0.95692 24.80427,0.27726 -15.78631,36.71085 -49.08706,76.03386 -79.27572,78.16664 l 0,-112.16326 37.34513,0 0,-24.91095 -37.34513,0 0,-31.65056 c 14.84358,-8.65576 24.91095,-24.75651 24.91095,-43.06097 0,-27.35991 -22.46197,-49.80058 -49.8219,-49.80058 z m 0,24.88963 c 13.90126,0 24.91095,11.00976 24.91095,24.91094 0,13.90118 -11.00969,24.91095 -24.91095,24.91095 -13.90113,0 -24.88959,-11.00977 -24.88959,-24.91095 0,-13.90118 10.98846,-24.91094 24.88959,-24.91094 z"
     id="circle3"
     inkscape:connector-curvature="0" />
</svg>

<svg width="580" height="580" viewBox="0 0 580 580" fill="none" xmlns="http://www.w3.org/2000/svg">
<path d="M290.078 128.161C262.718 128.161 240.277 150.602 240.277 177.962C240.277 196.273 250.336 212.369 265.188 221.023V252.673H227.822V277.584H265.188V389.747C234.996 387.614 201.675 348.299 185.891 311.581C198.406 312.262 210.695 311.303 210.695 311.303C210.695 311.303 186.604 274.967 152.748 265.64C131.605 283.907 128.22 335.681 128.22 335.681C128.22 335.681 136.18 331.741 145.816 324.399C162.085 370.97 204.478 411.316 255.74 422.571C277.754 427.402 290.078 451.897 290.078 451.897C290.078 451.897 302.422 427.402 324.437 422.571C375.44 411.373 417.656 371.375 434.105 325.103C443.971 332.621 451.956 335.681 451.956 335.681C451.956 320.739 450.265 290.432 428.623 265.043C394.768 274.37 369.46 311.303 369.46 311.303C369.46 311.303 381.754 312.26 394.264 311.581C378.478 348.292 345.177 387.615 314.989 389.747V277.584H352.334V252.673H314.989V221.023C329.832 212.367 339.9 196.266 339.9 177.962C339.9 150.602 317.438 128.161 290.078 128.161V128.161ZM290.078 153.051C303.979 153.051 314.989 164.06 314.989 177.962C314.989 191.863 303.979 202.873 290.078 202.873C276.176 202.873 265.188 191.863 265.188 177.962C265.188 164.06 276.176 153.051 290.078 153.051V153.051Z" fill="#8D298D"/>
</svg>
